assets/Twelve oclock/Flat/twelve_oclock_flat.svg

<svg width="32" height="32" viewBox="0 0 32 32" fill="none" xmlns="http://www.w3.org/2000/svg">
<path d="M28 16C28 22.6274 22.6274 28 16 28C9.37258 28 4 22.6274 4 16C4 9.37258 9.37258 4 16 4C22.6274 4 28 9.37258 28 16Z" fill="#E6E6E6"/>
<path d="M16.0288 7.00879C16.5811 7.00879 17.0288 7.4565 17.0288 8.00879V16.0042C17.0288 16.5565 16.5811 17.0042 16.0288 17.0042C15.4765 17.0042 15.0288 16.5565 15.0288 16.0042V8.00879C15.0288 7.4565 15.4765 7.00879 16.0288 7.00879Z" fill="#CA0B4A"/>
<path d="M16 27C9.92487 27 5 22.0751 5 16C5 9.92487 9.92487 5 16 5C22.0751 5 27 9.92487 27 16C27 22.0751 22.0751 27 16 27ZM16 30C23.732 30 30 23.732 30 16C30 8.26801 23.732 2 16 2C8.26801 2 2 8.26801 2 16C2 23.732 8.26801 30 16 30Z" fill="#636363"/>
<path d="M16.0288 9.03699C16.5811 9.03699 17.0288 9.4847 17.0288 10.037V16.0042C17.0288 16.5564 16.5811 17.0042 16.0288 17.0042C15.4765 17.0042 15.0288 16.5564 15.0288 16.0042V10.037C15.0288 9.4847 15.4765 9.03699 16.0288 9.03699Z" fill="black"/>
<path d="M18.02 16.0112C18.02 17.1096 17.1296 18 16.0312 18C14.9328 18 14.0424 17.1096 14.0424 16.0112C14.0424 14.9128 14.9328 14.0223 16.0312 14.0223C17.1296 14.0223 18.02 14.9128 18.02 16.0112Z" fill="#9B9B9B"/>
</svg>

<svg xmlns="http://www.w3.org/2000/svg" width="32" height="32" fill="none"><path fill="#E6E6E6" d="M28 16c0 6.627-5.373 12-12 12S4 22.627 4 16 9.373 4 16 4s12 5.373 12 12Z"/><path fill="#CA0B4A" d="M16.029 7.009a1 1 0 0 1 1 1v7.995a1 1 0 1 1-2 0V8.01a1 1 0 0 1 1-1Z"/><path fill="#636363" d="M16 27C9.925 27 5 22.075 5 16S9.925 5 16 5s11 4.925 11 11-4.925 11-11 11Zm0 3c7.732 0 14-6.268 14-14S23.732 2 16 2 2 8.268 2 16s6.268 14 14 14Z"/><path fill="#000" d="M16.029 9.037a1 1 0 0 1 1 1v5.967a1 1 0 0 1-2 0v-5.967a1 1 0 0 1 1-1Z"/><path fill="#9B9B9B" d="M18.02 16.011a1.989 1.989 0 1 1-3.978 0 1.989 1.989 0 0 1 3.978 0Z"/></svg>
